X:1
T:Title
%%score ( 1 2 ) 3
L:1/8
Q:1/4=97
M:4/4
K:Bb
V:1 treble nm="Grand Piano, Soprano"
V:2 treble 
V:3 bass nm="Choir Pad, Speed the Light (Bradley)"
V:1
 [B,D]>[DF] [DB]4- [DB]>[Fd] | [Fc]>[FB] [EG]6 | [CA]>[DB] [Ec]4- [Ec]>F | [FB]>[Fc] [Fd]6 | %4
w: By~James~Holmes~Rosecrans * * * *||||
 [B,D]>[DF] [DB]4- [DB]>[Fd] | [Fc]>[FB] [EG]6 | [Ec]>[Ge] [Fd]4- [Fd]>[DB] | [CA]>[Ec] [DB]6 | %8
w: ||||
 [Fd]>[Fd] [Ge]4- [Ge]>[Ge] | [GB]>[Gc] [Fd]6 | z2 c6 | [FA]>[=EG] F6 | %12
w: ||||
 [Fe]>[Fe] [Fd]4- [Fd]>[Fd] | [Ec]>[DB] [EG]6 | [Ec]>[Ge] [Fd]4- [Fd]>[DB] | z2 B6- | B6 z2 |] %17
w: |||||
V:2
 x8 | x8 | x8 | x8 | x8 | x8 | x8 | x8 | x8 | x8 | [Fd]>[Fd] F4 =E>[EB] | x8 | x8 | x8 | x8 | %15
 [CA]>[Ec] D2 E>E D2- | D6 z2 |] %17
V:3
 z4 [B,,F,]>[B,,F,] [B,,F,]>[B,,B,] | [C,A,]>[D,B,] [E,B,]6 | z4 [F,A,]>[F,A,] [F,A,]>[E,C] | %3
 [D,B,]>[F,A,] B,6 | z4 [B,,F,]>[B,,F,] [B,,F,]>[B,,B,] | [C,B,]>[D,B,] [E,B,]6 | %6
 z4 [F,B,]>[F,B,] [F,B,]>F, | F,>F, [B,,F,]6 | z2 [E,B,]2 [E,B,]2 [E,B,]2 | %9
 z2 z z/ [B,,B,]/ [D,B,]>[F,B,] B,2 | z2 [F,A,]2 [F,A,]2 [C,G,]2 | %11
 z2 z z/ [F,A,]/ [G,B,]>[G,B,] [A,C]2 | z2 [B,,B,]2 [B,,B,]2 [B,,B,]2 | %13
 z2 z z/ [E,B,]/ [G,B,]>B, [E,B,]2 | z2 [F,B,]2 [F,B,]2 [F,B,]2 | %15
 z2 z z/ [B,,F,]/ [B,,G,]>[B,,^F,] [B,,=F,]2- | [B,,F,]6 z2 |] %17

